icon-themes/sifr_svg/cmd/nl/lc_underline.svg

<svg viewBox="0 0 24 24" xmlns="http://www.w3.org/2000/svg"><path d="m2 23v-2h20v2zm7-4c-2.209139 0-4-1.790861-4-4v-9c0-2.209139 1.790861-4 4-4h6c2.209139 0 4 1.790861 4 4v9c0 2.209139-1.790861 4-4 4zm0-3h6c.552285 0 1-.447715 1-1v-9c0-.552285-.447715-1-1-1h-6c-.552285 0-1 .447715-1 1v9c0 .552285.4477153 1 1 1z" fill="#555753"/></svg>

<svg xmlns="http://www.w3.org/2000/svg" viewBox="0 0 24 24">
  <path
     style="fill:#555753"
     d="m 2,23 v -2 h 20 v 2 z M 9,19 C 6.790861,19 5,17.209139 5,15 V 6 C 5,3.790861 6.790861,2 9,2 h 6 c 2.209139,0 4,1.790861 4,4 v 9 c 0,2.209139 -1.790861,4 -4,4 z m 0,-3 h 6 c 0.552285,0 1,-0.447715 1,-1 V 6 C 16,5.447715 15.552285,5 15,5 H 9 C 8.447715,5 8,5.447715 8,6 v 9 c 0,0.552285 0.4477153,1 1,1 z"
     />
</svg>
